originals/mana.svg

<svg xmlns="http://www.w3.org/2000/svg" width="73" height="80" viewBox="0 0 73 80"><path fill="#16141A" d="M22.672 19.008 2.176 43.6A31.7 31.7 0 0 1 0 32C0 14.32 14.32 0 32 0s32 14.32 32 32c0 9.776-4.384 18.528-11.296 24.4H11.296A33.5 33.5 0 0 1 6.4 51.2h36.544V37.344L54.48 51.2h3.12L42.928 33.6l-4.048 4.864zM42.928 12.8c-4.416 0-8 3.584-8 8s3.584 8 8 8 8-3.584 8-8-3.584-8-8-8M22.672 7.008c-2.208 0-4 1.792-4 4s1.792 4 4 4 4-1.792 4-4-1.792-4-4-4M14.512 58.8h34.976A31.9 31.9 0 0 1 32 64a31.9 31.9 0 0 1-17.488-5.2m22.816-18.464L30.272 48.8H4.768a32 32 0 0 1-2.592-5.2h20.496V22.752z"/></svg>

<?xml version="1.0" encoding="UTF-8"?>
<svg width="73px" height="80px" viewBox="0 0 73 80" version="1.1" xmlns="http://www.w3.org/2000/svg" xmlns:xlink="http://www.w3.org/1999/xlink">
    <title>mana</title>
    <g id="mana" stroke="none" stroke-width="1" fill="none" fill-rule="evenodd">
        <g id="dark" fill="#16141A" fill-rule="nonzero">
            <path d="M22.672,19.008 L2.176,43.6 C0.768,40 0,36.096 0,32 C0,14.32 14.32,0 32,0 C49.68,0 64,14.32 64,32 C64,41.776 59.616,50.528 52.704,56.4 L11.296,56.4 C9.488,54.848 7.84,53.104 6.4,51.2 L42.944,51.2 L42.944,37.344 L54.48,51.2 L57.6,51.2 L42.928,33.6 L38.88,38.464 L22.672,19.008 Z M42.928,12.8 C38.512,12.8 34.928,16.384 34.928,20.8 C34.928,25.216 38.512,28.8 42.928,28.8 C47.344,28.8 50.928,25.216 50.928,20.8 C50.928,16.384 47.344,12.8 42.928,12.8 Z M22.672,7.008 C20.464,7.008 18.672,8.8 18.672,11.008 C18.672,13.216 20.464,15.008 22.672,15.008 C24.88,15.008 26.672,13.216 26.672,11.008 C26.672,8.8 24.88,7.008 22.672,7.008 Z M14.512,58.8 L49.488,58.8 C44.464,62.08 38.448,64 32,64 C25.552,64 19.536,62.08 14.512,58.8 Z M37.328,40.336 L30.272,48.8 L4.768,48.8 C3.76,47.152 2.88,45.424 2.176,43.6 L22.672,43.6 L22.672,22.752 L37.328,40.336 Z" id="288"></path>
        </g>
    </g>
</svg>
